X: 60
T: No_152_Dream_Song_of_a_Captive_Woman.krn
N: Derived from No_152_Dream_Song_of_a_Captive_Woman.krn
%%abc-version 2.0
%%abcx-abcm2ps-target-version 5.9.1 (29 Sep 2008)
%%abc-creator hum2abc beta
%%abcx-conversion-date 2019/03/15 08:37:56
%%humdrum-veritas 2252458065
%%humdrum-veritas-data 1589376977
%%linebreak <none>
%%barnumbers 0
L: 1/4
M: 2/4
K: Ab clef=bass
E, [I:setbarnb 1]| 
B,B, | 
B,2 | 
B,A,/F,/ | 
A,2 | 
A,/F,/z | 
B,B, | 
B,A, | 
F,2 | 
F,E, | 
C,F, | 
F,E,/C,/ | 
E,2 | 
E,/C,/ C,/ z/ | 
A,A, | 
F,E,/C,/ | 
F,2 | 
E,3/C,/ | 
F,3//F,//F, | 
E,C, | 
B,,E, | 
E,2 | 
C,E, | 
E,2 |]  



